CLXDemo/Assets/CLX/Object02/Frame.CUBE.CUBE
#Created by: Adobe Photoshop Export Color Lookup Plugin
TITLE "Frame.exr"
#LUT size
LUT_3D_SIZE 32
#data domain
DOMAIN_MIN 0.0 0.0 0.0
DOMAIN_MAX 1.0 1.0 1.0
#LUT data points
0.000000 0.000000 0.000000
0.000000 0.000000 0.000000
0.000000 0.000000 0.000000
0.000000 0.000000 0.000000
0.000000 0.000000 0.000000
0.000000 0.000000 0.000000
0.001784 0.001784 0.001784
0.006826 0.006826 0.006826
0.013897 0.013897 0.013897
0.023620 0.023620 0.023620
0.036835 0.036835 0.036835
0.054512 0.054512 0.054512
0.078623 0.078623 0.078623
0.111326 0.111326 0.111326
0.155694 0.155694 0.155694
0.215884 0.215884 0.215884
0.297258 0.297258 0.297258
0.407452 0.407452 0.407452
0.556899 0.556899 0.556899
0.759349 0.759349 0.759349
1.000000 1.000000 1.000000
1.000000 1.000000 1.000000
1.000000 1.000000 1.000000
1.000000 1.000000 1.000000
1.000000 1.000000 1.000000
1.000000 1.000000 1.000000
1.000000 1.000000 1.000000
1.000000 1.000000 1.000000
1.000000 1.000000 1.000000
1.000000 1.000000 1.000000
1.000000 1.000000 1.000000
1.000000 1.000000 1.000000
0.000000 0.000000 0.000000
0.000000 0.000000 0.000000
0.000000 0.000000 0.000000
0.000000 0.000000 0.000000
0.000000 0.000000 0.000000
0.000000 0.000000 0.000000
0.001784 0.001784 0.001784
0.006826 0.006826 0.006826
0.013897 0.013897 0.013897
0.023620 0.023620 0.023620
0.036835 0.036835 0.036835
0.054512 0.054512 0.054512
0.078623 0.078623 0.078623
0.111326 0.111326 0.111326
0.155694 0.155694 0.155694
0.215884 0.215884 0.215884
0.297258 0.297258 0.297258
0.407452 0.407452 0.407452
0.556899 0.556899 0.556899
0.759349 0.759349 0.759349
1.000000 1.000000 1.000000
1.000000 1.000000 1.000000
1.000000 1.000000 1.000000
1.000000 1.000000 1.000000
1.000000 1.000000 1.000000
1.000000 1.000000 1.000000
1.000000 1.000000 1.000000
1.000000 1.000000 1.000000
1.000000 1.000000 1.000000
1.000000 1.000000 1.000000
1.000000 1.000000 1.000000
1.000000 1.000000 1.000000
0.000000 0.000000 0.000000
0.000000 0.000000 0.000000
0.000000 0.000000 0.000000
0.000000 0.000000 0.000000
0.000000 0.000000 0.000000
0.000000 0.000000 0.000000
0.001784 0.001784 0.001784
0.006826 0.006826 0.006826
0.013897 0.013897 0.013897
0.023620 0.023620 0.023620
0.036835 0.036835 0.036835
0.054512 0.054512 0.054512
0.078623 0.078623 0.078623
0.111326 0.111326 0.111326
0.155694 0.155694 0.155694
0.215884 0.215884 0.215884
0.297258 0.297258 0.297258
0.407452 0.407452 0.407452
0.556899 0.556899 0.556899
0.759349 0.759349 0.759349
1.000000 1.000000 1.000000
1.000000 1.000000 1.000000
1.000000 1.000000 1.000000
1.000000 1.000000 1.000000
1.000000 1.000000 1.000000
1.000000 1.000000 1.000000
1.000000 1.000000 1.000000
1.000000 1.000000 1.000000
1.000000 1.000000 1.000000
1.000000 1.000000 1.000000
1.000000 1.000000 1.000000
1.000000 1.000000 1.000000
0.000000 0.000000 0.000000
0.000000 0.000000 0.000000
0.000000 0.000000 0.000000
0.000000 0.000000 0.000000
0.000000 0.000000 0.000000
0.000000 0.000000 0.000000
0.001784 0.001784 0.001784
0.006826 0.006826 0.006826
0.013897 0.013897 0.013897
0.023620 0.023620 0.023620
0.036835 0.036835 0.036835
0.054512 0.054512 0.054512
0.078623 0.078623 0.078623
0.111326 0.111326 0.111326
0.155694 0.155694 0.155694
0.215884 0.215884 0.215884
0.297258 0.297258 0.297258
0.407452 0.407452 0.407452
0.556899 0.556899 0.556899
0.759349 0.759349 0.759349
1.000000 1.000000 1.000000
1.000000 1.000000 1.000000
1.000000 1.000000 1.000000
1.000000 1.000000 1.000000
1.000000 1.000000 1.000000
1.000000 1.000000 1.000000
1.000000 1.000000 1.000000
1.000000 1.000000 1.000000
1.000000 1.000000 1.000000
1.000000 1.000000 1.000000
1.000000 1.000000 1.000000
1.000000 1.000000 1.000000
0.000000 0.000000 0.000000
0.000000 0.000000 0.000000
0.000000 0.000000 0.000000
0.000000 0.000000 0.000000
0.000000 0.000000 0.000000
0.000000 0.000000 0.000000
0.001784 0.001784 0.001784
0.006826 0.006826 0.006826
0.013897 0.013897 0.013897
0.023620 0.023620 0.023620
0.036835 0.036835 0.036835
0.054512 0.054512 0.054512
0.078623 0.078623 0.078623
0.111326 0.111326 0.111326
0.155694 0.155694 0.155694
0.215884 0.215884 0.215884
0.297258 0.297258 0.297258
0.407452 0.407452 0.407452
0.556899 0.556899 0.556899
0.759349 0.759349 0.759349
1.000000 1.000000 1.000000
1.000000 1.000000 1.000000
1.000000 1.000000 1.000000
1.000000 1.000000 1.000000
1.000000 1.000000 1.000000
1.000000 1.000000 1.000000
1.000000 1.000000 1.000000
1.000000 1.000000 1.000000
1.000000 1.000000 1.000000
1.000000 1.000000 1.000000
1.000000 1.000000 1.000000
1.000000 1.000000 1.000000
0.000000 0.000000 0.000000
0.000000 0.000000 0.000000
0.000000 0.000000 0.000000
0.000000 0.000000 0.000000
0.000000 0.000000 0.000000
0.000000 0.000000 0.000000
0.001784 0.001784 0.001784
0.006826 0.006826 0.006826
0.013897 0.013897 0.013897
0.023620 0.023620 0.023620
0.036835 0.036835 0.036835
0.054512 0.054512 0.054512
0.078623 0.078623 0.078623
0.111326 0.111326 0.111326
0.155694 0.155694 0.155694
0.215884 0.215884 0.215884
0.297258 0.297258 0.297258
0.407452 0.407452 0.407452
0.556899 0.556899 0.556899
0.759349 0.759349 0.759349
1.000000 1.000000 1.000000
1.000000 1.000000 1.000000
1.000000 1.000000 1.000000
1.000000 1.000000 1.000000
1.000000 1.000000 1.000000
1.000000 1.000000 1.000000
1.000000 1.000000 1.000000
1.000000 1.000000 1.000000
1.000000 1.000000 1.000000
1.000000 1.000000 1.000000
1.000000 1.000000 1.000000
1.000000 1.000000 1.000000
0.001784 0.001784 0.001784
0.001784 0.001784 0.001784
0.001784 0.001784 0.001784
0.001784 0.001784 0.001784
0.001784 0.001784 0.001784
0.001784 0.001784 0.001784
0.001784 0.001784 0.001784
0.006826 0.006826 0.006826
0.013897 0.013897 0.013897
0.023620 0.023620 0.023620
0.036835 0.036835 0.036835
0.054512 0.054512 0.054512
0.078623 0.078623 0.078623
0.111326 0.111326 0.111326
0.155694 0.155694 0.155694
0.215884 0.215884 0.215884
0.297258 0.297258 0.297258
0.407452 0.407452 0.407452
0.556899 0.556899 0.556899
0.759349 0.759349 0.759349
1.000000 1.000000 1.000000
1.000000 1.000000 1.000000
1.000000 1.000000 1.000000
1.000000 1.000000 1.000000
1.000000 1.000000 1.000000
1.000000 1.000000 1.000000
1.000000 1.000000 1.000000
1.000000 1.000000 1.000000
1.000000 1.000000 1.000000
1.000000 1.000000 1.000000
1.000000 1.000000 1.000000
1.000000 1.000000 1.000000
0.006826 0.006826 0.006826
0.006826 0.006826 0.006826
0.006826 0.006826 0.006826
0.006826 0.006826 0.006826
0.006826 0.006826 0.006826
0.006826 0.006826 0.006826
0.006826 0.006826 0.006826
0.006826 0.006826 0.006826
0.013897 0.013897 0.013897
0.023620 0.023620 0.023620
0.036835 0.036835 0.036835
0.054512 0.054512 0.054512
0.078623 0.078623 0.078623
0.111326 0.111326 0.111326
0.155694 0.155694 0.155694
0.215884 0.215884 0.215884
0.297258 0.297258 0.297258
0.407452 0.407452 0.407452
0.556899 0.556899 0.556899
0.759349 0.759349 0.759349
1.000000 1.000000 1.000000
1.000000 1.000000 1.000000
1.000000 1.000000 1.000000
1.000000 1.000000 1.000000
1.000000 1.000000 1.000000
1.000000 1.000000 1.000000
1.000000 1.000000 1.000000
1.000000 1.000000 1.000000
1.000000 1.000000 1.000000
1.000000 1.000000 1.000000
1.000000 1.000000 1.000000
1.000000 1.000000 1.000000
0.013897 0.013897 0.013897
0.013897 0.013897 0.013897
0.013897 0.013897 0.013897
0.013897 0.013897 0.013897
0.013897 0.013897 0.013897
0.013897 0.013897 0.013897
0.013897 0.013897 0.013897
0.013897 0.013897 0.013897
0.013897 0.013897 0.013897
0.023620 0.023620 0.023620
0.036835 0.036835 0.036835
0.054512 0.054512 0.054512
0.078623 0.078623 0.078623
0.111326 0.111326 0.111326
0.155694 0.155694 0.155694
0.215884 0.215884 0.215884
0.297258 0.297258 0.297258
0.407452 0.407452 0.407452
0.556899 0.556899 0.556899
0.759349 0.759349 0.759349
1.000000 1.000000 1.000000
1.000000 1.000000 1.000000
1.000000 1.000000 1.000000
1.000000 1.000000 1.000000
1.000000 1.000000 1.000000
1.000000 1.000000 1.000000
1.000000 1.000000 1.000000
1.000000 1.000000 1.000000
1.000000 1.000000 1.000000
1.000000 1.000000 1.000000
1.000000 1.000000 1.000000
1.000000 1.000000 1.000000
0.023620 0.023620 0.023620
0.023620 0.023620 0.023620
0.023620 0.023620 0.023620
0.023620 0.023620 0.023620
0.023620 0.023620 0.023620
0.023620 0.023620 0.023620
0.023620 0.023620 0.023620
0.023620 0.023620 0.023620
0.023620 0.023620 0.023620
0.023620 0.023620 0.023620
0.036835 0.036835 0.036835
0.054512 0.054512 0.054512
0.078623 0.078623 0.078623
0.111326 0.111326 0.111326
0.155694 0.155694 0.155694
0.215884 0.215884 0.215884
0.297258 0.297258 0.297258
0.407452 0.407452 0.407452
0.556899 0.556899 0.556899
0.759349 0.759349 0.759349
1.000000 1.000000 1.000000
1.000000 1.000000 1.000000
1.000000 1.000000 1.000000
1.000000 1.000000 1.000000
1.000000 1.000000 1.000000
1.000000 1.000000 1.000000
1.000000 1.000000 1.000000
1.000000 1.000000 1.000000
1.000000 1.000000 1.000000
1.000000 1.000000 1.000000
1.000000 1.000000 1.000000
1.000000 1.000000 1.000000
0.036835 0.036835 0.036835
0.036835 0.036835 0.036835
0.036835 0.036835 0.036835
0.036835 0.036835 0.036835
0.036835 0.036835 0.036835
0.036835 0.036835 0.036835
0.036835 0.036835 0.036835
0.036835 0.036835 0.036835
0.036835 0.036835 0.036835
0.036835 0.036835 0.036835
0.036835 0.036835 0.036835
0.054512 0.054512 0.054512
0.078623 0.078623 0.078623
0.111326 0.111326 0.111326
0.155694 0.155694 0.155694
0.215884 0.215884 0.215884
0.297258 0.297258 0.297258
0.407452 0.407452 0.407452
0.556899 0.556899 0.556899
0.759349 0.759349 0.759349
1.000000 1.000000 1.000000
1.000000 1.000000 1.000000
1.000000 1.000000 1.000000
1.000000 1.000000 1.000000
1.000000 1.000000 1.000000
1.000000 1.000000 1.000000
1.000000 1.000000 1.000000
1.000000 1.000000 1.000000
1.000000 1.000000 1.000000
1.000000 1.000000 1.000000
1.000000 1.000000 1.000000
1.000000 1.000000 1.000000
0.054512 0.054512 0.054512
0.054512 0.054512 0.054512
0.054512 0.054512 0.054512
0.054512 0.054512 0.054512
0.054512 0.054512 0.054512
0.054512 0.054512 0.054512
0.054512 0.054512 0.054512
0.054512 0.054512 0.054512
0.054512 0.054512 0.054512
0.054512 0.054512 0.054512
0.054512 0.054512 0.054512
0.054512 0.054512 0.054512
0.078623 0.078623 0.078623
0.111326 0.111326 0.111326
0.155694 0.155694 0.155694
0.215884 0.215884 0.215884
0.297258 0.297258 0.297258
0.407452 0.407452 0.407452
0.556899 0.556899 0.556899
0.759349 0.759349 0.759349
1.000000 1.000000 1.000000
1.000000 1.000000 1.000000
1.000000 1.000000 1.000000
1.000000 1.000000 1.000000
1.000000 1.000000 1.000000
1.000000 1.000000 1.000000
1.000000 1.000000 1.000000
1.000000 1.000000 1.000000
1.000000 1.000000 1.000000
1.000000 1.000000 1.000000
1.000000 1.000000 1.000000
1.000000 1.000000 1.000000
0.078623 0.078623 0.078623
0.078623 0.078623 0.078623
0.078623 0.078623 0.078623
0.078623 0.078623 0.078623
0.078623 0.078623 0.078623
0.078623 0.078623 0.078623
0.078623 0.078623 0.078623
0.078623 0.078623 0.078623
0.078623 0.078623 0.078623
0.078623 0.078623 0.078623
0.078623 0.078623 0.078623
0.078623 0.078623 0.078623
0.078623 0.078623 0.078623
0.111326 0.111326 0.111326
0.155694 0.155694 0.155694
0.215884 0.215884 0.215884
0.297258 0.297258 0.297258
0.407452 0.407452 0.407452
0.556899 0.556899 0.556899
0.759349 0.759349 0.759349
1.000000 1.000000 1.000000
1.000000 1.000000 1.000000
1.000000 1.000000 1.000000
1.000000 1.000000 1.000000
1.000000 1.000000 1.000000
1.000000 1.000000 1.000000
1.000000 1.000000 1.000000
1.000000 1.000000 1.000000
1.000000 1.000000 1.000000
1.000000 1.000000 1.000000
1.000000 1.000000 1.000000
1.000000 1.000000 1.000000
0.111326 0.111326 0.111326
0.111326 0.111326 0.111326
0.111326 0.111326 0.111326
0.111326 0.111326 0.111326
0.111326 0.111326 0.111326
0.111326 0.111326 0.111326
0.111326 0.111326 0.111326
0.111326 0.111326 0.111326
0.111326 0.111326 0.111326
0.111326 0.111326 0.111326
0.111326 0.111326 0.111326
0.111326 0.111326 0.111326
0.111326 0.111326 0.111326
0.111326 0.111326 0.111326
0.155694 0.155694 0.155694
0.215884 0.215884 0.215884
0.297258 0.297258 0.297258
0.407452 0.407452 0.407452
0.556899 0.556899 0.556899
0.759349 0.759349 0.759349
1.000000 1.000000 1.000000
1.000000 1.000000 1.000000
1.000000 1.000000 1.000000
1.000000 1.000000 1.000000
1.000000 1.000000 1.000000
1.000000 1.000000 1.000000
1.000000 1.000000 1.000000
1.000000 1.000000 1.000000
1.000000 1.000000 1.000000
1.000000 1.000000 1.000000
1.000000 1.000000 1.000000
1.000000 1.000000 1.000000
0.155694 0.155694 0.155694
0.155694 0.155694 0.155694
0.155694 0.155694 0.155694
0.155694 0.155694 0.155694
0.155694 0.155694 0.155694
0.155694 0.155694 0.155694
0.155694 0.155694 0.155694
0.155694 0.155694 0.155694
0.155694 0.155694 0.155694
0.155694 0.155694 0.155694
0.155694 0.155694 0.155694
0.155694 0.155694 0.155694
0.155694 0.155694 0.155694
0.155694 0.155694 0.155694
0.155694 0.155694 0.155694
0.215884 0.215884 0.215884
0.297258 0.297258 0.297258
0.407452 0.407452 0.407452
0.556899 0.556899 0.556899
0.759349 0.759349 0.759349
1.000000 1.000000 1.000000
1.000000 1.000000 1.000000
1.000000 1.000000 1.000000
1.000000 1.000000 1.000000
1.000000 1.000000 1.000000
1.000000 1.000000 1.000000
1.000000 1.000000 1.000000
1.000000 1.000000 1.000000
1.000000 1.000000 1.000000
1.000000 1.000000 1.000000
1.000000 1.000000 1.000000
1.000000 1.000000 1.000000
0.215884 0.215884 0.215884
0.215884 0.215884 0.215884
0.215884 0.215884 0.215884
0.215884 0.215884 0.215884
0.215884 0.215884 0.215884
0.215884 0.215884 0.215884
0.215884 0.215884 0.215884
0.215884 0.215884 0.215884
0.215884 0.215884 0.215884
0.215884 0.215884 0.215884
0.215884 0.215884 0.215884
0.215884 0.215884 0.215884
0.215884 0.215884 0.215884
0.215884 0.215884 0.215884
0.215884 0.215884 0.215884
0.215884 0.215884 0.215884
0.297258 0.297258 0.297258
0.407452 0.407452 0.407452
0.556899 0.556899 0.556899
0.759349 0.759349 0.759349
1.000000 1.000000 1.000000
1.000000 1.000000 1.000000
1.000000 1.000000 1.000000
1.000000 1.000000 1.000000
1.000000 1.000000 1.000000
1.000000 1.000000 1.000000
1.000000 1.000000 1.000000
1.000000 1.000000 1.000000
1.000000 1.000000 1.000000
1.000000 1.000000 1.000000
1.000000 1.000000 1.000000
1.000000 1.000000 1.000000
0.297258 0.297258 0.297258
0.297258 0.297258 0.297258
0.297258 0.297258 0.297258
0.297258 0.297258 0.297258
0.297258 0.297258 0.297258
0.297258 0.297258 0.297258
0.297258 0.297258 0.297258
0.297258 0.297258 0.297258
0.297258 0.297258 0.297258
0.297258 0.297258 0.297258
0.297258 0.297258 0.297258
0.297258 0.297258 0.297258
0.297258 0.297258 0.297258
0.297258 0.297258 0.297258
0.297258 0.297258 0.297258
0.297258 0.297258 0.297258
0.297258 0.297258 0.297258
0.407452 0.407452 0.407452
0.556899 0.556899 0.556899
0.759349 0.759349 0.759349
1.000000 1.000000 1.000000
1.000000 1.000000 1.000000
1.000000 1.000000 1.000000
1.000000 1.000000 1.000000
1.000000 1.000000 1.000000
1.000000 1.000000 1.000000
1.000000 1.000000 1.000000
1.000000 1.000000 1.000000
1.000000 1.000000 1.000000
1.000000 1.000000 1.000000
1.000000 1.000000 1.000000
1.000000 1.000000 1.000000
0.407452 0.407452 0.407452
0.407452 0.407452 0.407452
0.407452 0.407452 0.407452
0.407452 0.407452 0.407452
0.407452 0.407452 0.407452
0.407452 0.407452 0.407452
0.407452 0.407452 0.407452
0.407452 0.407452 0.407452
0.407452 0.407452 0.407452
0.407452 0.407452 0.407452
0.407452 0.407452 0.407452
0.407452 0.407452 0.407452
0.407452 0.407452 0.407452
0.407452 0.407452 0.407452
0.407452 0.407452 0.407452
0.407452 0.407452 0.407452
0.407452 0.407452 0.407452
0.407452 0.407452 0.407452
0.556899 0.556899 0.556899
0.759349 0.759349 0.759349
1.000000 1.000000 1.000000
1.000000 1.000000 1.000000
1.000000 1.000000 1.000000
1.000000 1.000000 1.000000
1.000000 1.000000 1.000000
1.000000 1.000000 1.000000
1.000000 1.000000 1.000000
1.000000 1.000000 1.000000
1.000000 1.000000 1.000000
1.000000 1.000000 1.000000
1.000000 1.000000 1.000000
1.000000 1.000000 1.000000
0.556899 0.556899 0.556899
0.556899 0.556899 0.556899
0.556899 0.556899 0.556899
0.556899 0.556899 0.556899
0.556899 0.556899 0.556899
0.556899 0.556899 0.556899
0.556899 0.556899 0.556899
0.556899 0.556899 0.556899
0.556899 0.556899 0.556899
0.556899 0.556899 0.556899
0.556899 0.556899 0.556899
0.556899 0.556899 0.556899
0.556899 0.556899 0.556899
0.556899 0.556899 0.556899
0.556899 0.556899 0.556899
0.556899 0.556899 0.556899
0.556899 0.556899 0.556899
0.556899 0.556899 0.556899
0.556899 0.556899 0.556899
0.759349 0.759349 0.759349
1.000000 1.000000 1.000000
1.000000 1.000000 1.000000
1.000000 1.000000 1.000000
1.000000 1.000000 1.000000
1.000000 1.000000 1.000000
1.000000 1.000000 1.000000
1.000000 1.000000 1.000000
1.000000 1.000000 1.000000
1.000000 1.000000 1.000000
1.000000 1.000000 1.000000
1.000000 1.000000 1.000000
1.000000 1.000000 1.000000
0.759349 0.759349 0.759349
0.759349 0.759349 0.759349
0.759349 0.759349 0.759349
0.759349 0.759349 0.759349
0.759349 0.759349 0.759349
0.759349 0.759349 0.759349
0.759349 0.759349 0.759349
0.759349 0.759349 0.759349
0.759349 0.759349 0.759349
0.759349 0.759349 0.759349
0.759349 0.759349 0.759349
0.759349 0.759349 0.759349
0.759349 0.759349 0.759349
0.759349 0.759349 0.759349
0.759349 0.759349 0.759349
0.759349 0.759349 0.759349
0.759349 0.759349 0.759349
0.759349 0.759349 0.759349
0.759349 0.759349 0.759349
0.759349 0.759349 0.759349
1.000000 1.000000 1.000000
1.000000 1.000000 1.000000
1.000000 1.000000 1.000000
1.000000 1.000000 1.000000
1.000000 1.000000 1.000000
1.000000 1.000000 1.000000
1.000000 1.000000 1.000000
1.000000 1.000000 1.000000
1.000000 1.000000 1.000000
1.000000 1.000000 1.000000
1.000000 1.000000 1.000000
1.000000 1.000000 1.000000
1.000000 1.000000 1.000000
1.000000 1.000000 1.000000
1.000000 1.000000 1.000000
1.000000 1.000000 1.000000
1.000000 1.000000 1.000000
1.000000 1.000000 1.000000
1.000000 1.000000 1.000000
1.000000 1.000000 1.000000
1.000000 1.000000 1.000000
1.000000 1.000000 1.000000
1.000000 1.000000 1.000000
1.000000 1.000000 1.000000
1.000000 1.000000 1.000000
1.000000 1.000000 1.000000
1.000000 1.000000 1.000000
1.000000 1.000000 1.000000
1.000000 1.000000 1.000000
1.000000 1.000000 1.000000
1.000000 1.000000 1.000000
1.000000 1.000000 1.000000
1.000000 1.000000 1.000000
1.000000 1.000000 1.000000
1.000000 1.000000 1.000000
1.000000 1.000000 1.000000
1.000000 1.000000 1.000000
1.000000 1.000000 1.000000
1.000000 1.000000 1.000000
1.000000 1.000000 1.000000
1.000000 1.000000 1.000000
1.000000 1.000000 1.000000
1.000000 1.000000 1.000000
1.000000 1.000000 1.000000
1.000000 1.000000 1.000000
1.000000 1.000000 1.000000
1.000000 1.000000 1.000000
1.000000 1.000000 1.000000
1.000000 1.000000 1.000000
1.000000 1.000000 1.000000
1.000000 1.000000 1.000000
1.000000 1.000000 1.000000
1.000000 1.000000 1.000000
1.000000 1.000000 1.000000
1.000000 1.000000 1.000000
1.000000 1.000000 1.000000
1.000000 1.000000 1.000000
1.000000 1.000000 1.000000
1.000000 1.000000 1.000000
1.000000 1.000000 1.000000
1.000000 1.000000 1.000000
1.000000 1.000000 1.000000
1.000000 1.000000 1.000000
1.000000 1.000000 1.000000
1.000000 1.000000 1.000000
1.000000 1.000000 1.000000
1.000000 1.000000 1.000000
1.000000 1.000000 1.000000
1.000000 1.000000 1.000000
1.000000 1.000000 1.000000
1.000000 1.000000 1.000000
1.000000 1.000000 1.000000
1.000000 1.000000 1.000000
1.000000 1.000000 1.000000
1.000000 1.000000 1.000000
1.000000 1.000000 1.000000
1.000000 1.000000 1.000000
1.000000 1.000000 1.000000
1.000000 1.000000 1.000000
1.000000 1.000000 1.000000
1.000000 1.000000 1.000000
1.000000 1.000000 1.000000
1.000000 1.000000 1.000000
1.000000 1.000000 1.000000
1.000000 1.000000 1.000000
1.000000 1.000000 1.000000
1.000000 1.000000 1.000000
1.000000 1.000000 1.000000
1.000000 1.000000 1.000000
1.000000 1.000000 1.000000
1.000000 1.000000 1.000000
1.000000 1.000000 1.000000
1.000000 1.000000 1.000000
1.000000 1.000000 1.000000
1.000000 1.000000 1.000000
1.000000 1.000000 1.000000
1.000000 1.000000 1.000000
1.000000 1.000000 1.000000
1.000000 1.000000 1.000000
1.000000 1.000000 1.000000
1.000000 1.000000 1.000000
1.000000 1.000000 1.000000
1.000000 1.000000 1.000000
1.000000 1.000000 1.000000
1.000000 1.000000 1.000000
1.000000 1.000000 1.000000
1.000000 1.000000 1.000000
1.000000 1.000000 1.000000
1.000000 1.000000 1.000000
1.000000 1.000000 1.000000
1.000000 1.000000 1.000000
1.000000 1.000000 1.000000
1.000000 1.000000 1.000000
1.000000 1.000000 1.000000
1.000000 1.000000 1.000000
1.000000 1.000000 1.000000
1.000000 1.000000 1.000000
1.000000 1.000000 1.000000
1.000000 1.000000 1.000000
1.000000 1.000000 1.000000
1.000000 1.000000 1.000000
1.000000 1.000000 1.000000
1.000000 1.000000 1.000000
1.000000 1.000000 1.000000
1.000000 1.000000 1.000000
1.000000 1.000000 1.000000
1.000000 1.000000 1.000000
1.000000 1.000000 1.000000
1.000000 1.000000 1.000000
1.000000 1.000000 1.000000
1.000000 1.000000 1.000000
1.000000 1.000000 1.000000
1.000000 1.000000 1.000000
1.000000 1.000000 1.000000
1.000000 1.000000 1.000000
1.000000 1.000000 1.000000
1.000000 1.000000 1.000000
1.000000 1.000000 1.000000
1.000000 1.000000 1.000000
1.000000 1.000000 1.000000
1.000000 1.000000 1.000000
1.000000 1.000000 1.000000
1.000000 1.000000 1.000000
1.000000 1.000000 1.000000
1.000000 1.000000 1.000000
1.000000 1.000000 1.000000
1.000000 1.000000 1.000000
1.000000 1.000000 1.000000
1.000000 1.000000 1.000000
1.000000 1.000000 1.000000
1.000000 1.000000 1.000000
1.000000 1.000000 1.000000
1.000000 1.000000 1.000000
1.000000 1.000000 1.000000
1.000000 1.000000 1.000000
1.000000 1.000000 1.000000
1.000000 1.000000 1.000000
1.000000 1.000000 1.000000
1.000000 1.000000 1.000000
1.000000 1.000000 1.000000
1.000000 1.000000 1.000000
1.000000 1.000000 1.000000
1.000000 1.000000 1.000000
1.000000 1.000000 1.000000
1.000000 1.000000 1.000000
1.000000 1.000000 1.000000
1.000000 1.000000 1.000000
1.000000 1.000000 1.000000
1.000000 1.000000 1.000000
1.000000 1.000000 1.000000
1.000000 1.000000 1.000000
1.000000 1.000000 1.000000
1.000000 1.000000 1.000000
1.000000 1.000000 1.000000
1.000000 1.000000 1.000000
1.000000 1.000000 1.000000
1.000000 1.000000 1.000000
1.000000 1.000000 1.000000
1.000000 1.000000 1.000000
1.000000 1.000000 1.000000
1.000000 1.000000 1.000000
1.000000 1.000000 1.000000
1.000000 1.000000 1.000000
1.000000 1.000000 1.000000
1.000000 1.000000 1.000000
1.000000 1.000000 1.000000
1.000000 1.000000 1.000000
1.000000 1.000000 1.000000
1.000000 1.000000 1.000000
1.000000 1.000000 1.000000
1.000000 1.000000 1.000000
1.000000 1.000000 1.000000
1.000000 1.000000 1.000000
1.000000 1.000000 1.000000
1.000000 1.000000 1.000000
1.000000 1.000000 1.000000
1.000000 1.000000 1.000000
1.000000 1.000000 1.000000
1.000000 1.000000 1.000000
1.000000 1.000000 1.000000
1.000000 1.000000 1.000000
1.000000 1.000000 1.000000
1.000000 1.000000 1.000000
1.000000 1.000000 1.000000
1.000000 1.000000 1.000000
1.000000 1.000000 1.000000
1.000000 1.000000 1.000000
1.000000 1.000000 1.000000
1.000000 1.000000 1.000000
1.000000 1.000000 1.000000
1.000000 1.000000 1.000000
1.000000 1.000000 1.000000
1.000000 1.000000 1.000000
1.000000 1.000000 1.000000
1.000000 1.000000 1.000000
1.000000 1.000000 1.000000
1.000000 1.000000 1.000000
1.000000 1.000000 1.000000
1.000000 1.000000 1.000000
1.000000 1.000000 1.000000
1.000000 1.000000 1.000000
1.000000 1.000000 1.000000
1.000000 1.000000 1.000000
1.000000 1.000000 1.000000
1.000000 1.000000 1.000000
1.000000 1.000000 1.000000
1.000000 1.000000 1.000000
1.000000 1.000000 1.000000
1.000000 1.000000 1.000000
1.000000 1.000000 1.000000
1.000000 1.000000 1.000000
1.000000 1.000000 1.000000
1.000000 1.000000 1.000000
1.000000 1.000000 1.000000
1.000000 1.000000 1.000000
1.000000 1.000000 1.000000
1.000000 1.000000 1.000000
1.000000 1.000000 1.000000
1.000000 1.000000 1.000000
1.000000 1.000000 1.000000
1.000000 1.000000 1.000000
1.000000 1.000000 1.000000
1.000000 1.000000 1.000000
1.000000 1.000000 1.000000
1.000000 1.000000 1.000000
1.000000 1.000000 1.000000
1.000000 1.000000 1.000000
1.000000 1.000000 1.000000
1.000000 1.000000 1.000000
1.000000 1.000000 1.000000
1.000000 1.000000 1.000000
1.000000 1.000000 1.000000
1.000000 1.000000 1.000000
1.000000 1.000000 1.000000
