CLXDemo/Assets/CLX/Object02/Frame.CUBE
#Created by: Adobe Photoshop Export Color Lookup Plugin
TITLE "mylut.exr"
#LUT size
LUT_3D_SIZE 32
#data domain
DOMAIN_MIN 0.0 0.0 0.0
DOMAIN_MAX 1.0 1.0 1.0
#LUT data points
0.000000 0.000000 0.000000
0.000000 0.000000 0.000000
0.000000 0.000000 0.000000
0.002215 0.000000 0.000000
0.008272 0.000000 0.000000
0.015349 0.000000 0.000000
0.023631 0.000000 0.000000
0.034386 0.000000 0.000000
0.049467 0.000000 0.000000
0.070203 0.000000 0.000000
0.098388 0.000000 0.000000
0.136090 0.000000 0.000000
0.187514 0.000000 0.000000
0.257264 0.000000 0.000000
0.351892 0.000000 0.000000
0.480266 0.000000 0.000000
0.653822 0.000000 0.000000
0.888846 0.000000 0.000000
1.000000 0.000000 0.000000
1.000000 0.000000 0.000000
1.000000 0.000000 0.000000
1.000000 0.000000 0.000000
1.000000 0.000000 0.000000
1.000000 0.000000 0.000000
1.000000 0.000000 0.000000
1.000000 0.000000 0.000000
1.000000 0.000000 0.000000
1.000000 0.000000 0.000000
1.000000 0.000000 0.000000
1.000000 0.000000 0.000000
1.000000 0.000000 0.000000
1.000000 0.000000 0.000000
0.000000 0.000000 0.000000
0.000000 0.000000 0.000000
0.000000 0.000000 0.000000
0.002215 0.000000 0.000000
0.008272 0.000000 0.000000
0.015349 0.000000 0.000000
0.023631 0.000000 0.000000
0.034386 0.000000 0.000000
0.049467 0.000000 0.000000
0.070203 0.000000 0.000000
0.098388 0.000000 0.000000
0.136090 0.000000 0.000000
0.187514 0.000000 0.000000
0.257264 0.000000 0.000000
0.351892 0.000000 0.000000
0.480266 0.000000 0.000000
0.653822 0.000000 0.000000
0.888846 0.000000 0.000000
1.000000 0.000000 0.000000
1.000000 0.000000 0.000000
1.000000 0.000000 0.000000
1.000000 0.000000 0.000000
1.000000 0.000000 0.000000
1.000000 0.000000 0.000000
1.000000 0.000000 0.000000
1.000000 0.000000 0.000000
1.000000 0.000000 0.000000
1.000000 0.000000 0.000000
1.000000 0.000000 0.000000
1.000000 0.000000 0.000000
1.000000 0.000000 0.000000
1.000000 0.000000 0.000000
0.000000 0.000000 0.000000
0.000000 0.000000 0.000000
0.000000 0.000000 0.000000
0.002215 0.000000 0.000000
0.008272 0.000000 0.000000
0.015349 0.000000 0.000000
0.023631 0.000000 0.000000
0.034386 0.000000 0.000000
0.049467 0.000000 0.000000
0.070203 0.000000 0.000000
0.098388 0.000000 0.000000
0.136090 0.000000 0.000000
0.187514 0.000000 0.000000
0.257264 0.000000 0.000000
0.351892 0.000000 0.000000
0.480266 0.000000 0.000000
0.653822 0.000000 0.000000
0.888846 0.000000 0.000000
1.000000 0.000000 0.000000
1.000000 0.000000 0.000000
1.000000 0.000000 0.000000
1.000000 0.000000 0.000000
1.000000 0.000000 0.000000
1.000000 0.000000 0.000000
1.000000 0.000000 0.000000
1.000000 0.000000 0.000000
1.000000 0.000000 0.000000
1.000000 0.000000 0.000000
1.000000 0.000000 0.000000
1.000000 0.000000 0.000000
1.000000 0.000000 0.000000
1.000000 0.000000 0.000000
0.000000 0.002215 0.000000
0.000000 0.002215 0.000000
0.000000 0.002215 0.000000
0.002215 0.002215 0.000000
0.008272 0.001838 0.000000
0.015349 0.001397 0.000000
0.023631 0.000881 0.000000
0.034386 0.000212 0.000000
0.049467 0.000000 0.000000
0.070203 0.000000 0.000000
0.098388 0.000000 0.000000
0.136090 0.000000 0.000000
0.187514 0.000000 0.000000
0.257264 0.000000 0.000000
0.351892 0.000000 0.000000
0.480266 0.000000 0.000000
0.653822 0.000000 0.000000
0.888846 0.000000 0.000000
1.000000 0.000000 0.000000
1.000000 0.000000 0.000000
1.000000 0.000000 0.000000
1.000000 0.000000 0.000000
1.000000 0.000000 0.000000
1.000000 0.000000 0.000000
1.000000 0.000000 0.000000
1.000000 0.000000 0.000000
1.000000 0.000000 0.000000
1.000000 0.000000 0.000000
1.000000 0.000000 0.000000
1.000000 0.000000 0.000000
1.000000 0.000000 0.000000
1.000000 0.000000 0.000000
0.000000 0.008272 0.000000
0.000000 0.008272 0.000000
0.000000 0.008272 0.000000
0.001838 0.008272 0.000000
0.008272 0.008272 0.000000
0.015349 0.007831 0.000000
0.023631 0.007316 0.000000
0.034386 0.006646 0.000000
0.049467 0.005707 0.000000
0.070203 0.004415 0.000000
0.098388 0.002660 0.000000
0.136090 0.000313 0.000000
0.187514 0.000000 0.000000
0.257264 0.000000 0.000000
0.351892 0.000000 0.000000
0.480266 0.000000 0.000000
0.653822 0.000000 0.000000
0.888846 0.000000 0.000000
1.000000 0.000000 0.000000
1.000000 0.000000 0.000000
1.000000 0.000000 0.000000
1.000000 0.000000 0.000000
1.000000 0.000000 0.000000
1.000000 0.000000 0.000000
1.000000 0.000000 0.000000
1.000000 0.000000 0.000000
1.000000 0.000000 0.000000
1.000000 0.000000 0.000000
1.000000 0.000000 0.000000
1.000000 0.000000 0.000000
1.000000 0.000000 0.000000
1.000000 0.000000 0.000000
0.000000 0.015349 0.000000
0.000000 0.015349 0.000000
0.000000 0.015349 0.000000
0.001397 0.015349 0.000000
0.007831 0.015349 0.000000
0.015349 0.015349 0.000000
0.023631 0.014833 0.000000
0.034386 0.014163 0.000000
0.049467 0.013224 0.000000
0.070203 0.011933 0.000000
0.098388 0.010178 0.000000
0.136090 0.007830 0.000000
0.187514 0.004628 0.000000
0.257264 0.000285 0.000000
0.351892 0.000000 0.000000
0.480266 0.000000 0.000000
0.653822 0.000000 0.000000
0.888846 0.000000 0.000000
1.000000 0.000000 0.000000
1.000000 0.000000 0.000000
1.000000 0.000000 0.000000
1.000000 0.000000 0.000000
1.000000 0.000000 0.000000
1.000000 0.000000 0.000000
1.000000 0.000000 0.000000
1.000000 0.000000 0.000000
1.000000 0.000000 0.000000
1.000000 0.000000 0.000000
1.000000 0.000000 0.000000
1.000000 0.000000 0.000000
1.000000 0.000000 0.000000
1.000000 0.000000 0.000000
0.000000 0.023631 0.000000
0.000000 0.023631 0.000000
0.000000 0.023631 0.000000
0.000881 0.023631 0.000000
0.007316 0.023631 0.000000
0.014833 0.023631 0.000000
0.023631 0.023631 0.000000
0.034386 0.022961 0.000000
0.049467 0.022022 0.000000
0.070203 0.020731 0.000000
0.098388 0.018976 0.000000
0.136090 0.016628 0.000000
0.187514 0.013426 0.000000
0.257264 0.009083 0.000000
0.351892 0.003190 0.000000
0.480266 0.000000 0.000000
0.653822 0.000000 0.000000
0.888846 0.000000 0.000000
1.000000 0.000000 0.000000
1.000000 0.000000 0.000000
1.000000 0.000000 0.000000
1.000000 0.000000 0.000000
1.000000 0.000000 0.000000
1.000000 0.000000 0.000000
1.000000 0.000000 0.000000
1.000000 0.000000 0.000000
1.000000 0.000000 0.000000
1.000000 0.000000 0.000000
1.000000 0.000000 0.000000
1.000000 0.000000 0.000000
1.000000 0.000000 0.000000
1.000000 0.000000 0.000000
0.000000 0.034386 0.000000
0.000000 0.034386 0.000000
0.000000 0.034386 0.000000
0.000211 0.034386 0.000000
0.006646 0.034386 0.000000
0.014163 0.034386 0.000000
0.022961 0.034386 0.000000
0.034386 0.034386 0.000000
0.049467 0.033447 0.000000
0.070203 0.032155 0.000000
0.098388 0.030400 0.000000
0.136090 0.028052 0.000000
0.187514 0.024850 0.000000
0.257264 0.020507 0.000000
0.351892 0.014614 0.000000
0.480266 0.006620 0.000000
0.653822 0.000000 0.000000
0.888846 0.000000 0.000000
1.000000 0.000000 0.000000
1.000000 0.000000 0.000000
1.000000 0.000000 0.000000
1.000000 0.000000 0.000000
1.000000 0.000000 0.000000
1.000000 0.000000 0.000000
1.000000 0.000000 0.000000
1.000000 0.000000 0.000000
1.000000 0.000000 0.000000
1.000000 0.000000 0.000000
1.000000 0.000000 0.000000
1.000000 0.000000 0.000000
1.000000 0.000000 0.000000
1.000000 0.000000 0.000000
0.000000 0.049467 0.000000
0.000000 0.049467 0.000000
0.000000 0.049467 0.000000
0.000000 0.049467 0.000000
0.005707 0.049467 0.000000
0.013224 0.049467 0.000000
0.022022 0.049467 0.000000
0.033447 0.049467 0.000000
0.049467 0.049467 0.000000
0.070203 0.048175 0.000000
0.098388 0.046420 0.000000
0.136090 0.044073 0.000000
0.187514 0.040870 0.000000
0.257264 0.036527 0.000000
0.351892 0.030634 0.000000
0.480266 0.022640 0.000000
0.653822 0.011833 0.000000
0.888846 0.000000 0.000000
1.000000 0.000000 0.000000
1.000000 0.000000 0.000000
1.000000 0.000000 0.000000
1.000000 0.000000 0.000000
1.000000 0.000000 0.000000
1.000000 0.000000 0.000000
1.000000 0.000000 0.000000
1.000000 0.000000 0.000000
1.000000 0.000000 0.000000
1.000000 0.000000 0.000000
1.000000 0.000000 0.000000
1.000000 0.000000 0.000000
1.000000 0.000000 0.000000
1.000000 0.000000 0.000000
0.000000 0.070203 0.000000
0.000000 0.070203 0.000000
0.000000 0.070203 0.000000
0.000000 0.070203 0.000000
0.004415 0.070203 0.000000
0.011933 0.070203 0.000000
0.020731 0.070203 0.000000
0.032155 0.070203 0.000000
0.048175 0.070203 0.000000
0.070203 0.070203 0.000000
0.098388 0.068448 0.000000
0.136090 0.066100 0.000000
0.187514 0.062898 0.000000
0.257264 0.058555 0.000000
0.351892 0.052662 0.000000
0.480266 0.044668 0.000000
0.653822 0.033861 0.000000
0.888846 0.019225 0.000000
1.000000 0.000000 0.000000
1.000000 0.000000 0.000000
1.000000 0.000000 0.000000
1.000000 0.000000 0.000000
1.000000 0.000000 0.000000
1.000000 0.000000 0.000000
1.000000 0.000000 0.000000
1.000000 0.000000 0.000000
1.000000 0.000000 0.000000
1.000000 0.000000 0.000000
1.000000 0.000000 0.000000
1.000000 0.000000 0.000000
1.000000 0.000000 0.000000
1.000000 0.000000 0.000000
0.000000 0.098388 0.000000
0.000000 0.098388 0.000000
0.000000 0.098388 0.000000
0.000000 0.098388 0.000000
0.002660 0.098388 0.000000
0.010178 0.098388 0.000000
0.018976 0.098388 0.000000
0.030400 0.098388 0.000000
0.046420 0.098388 0.000000
0.068448 0.098388 0.000000
0.098388 0.098388 0.000000
0.136090 0.096040 0.000000
0.187514 0.092838 0.000000
0.257264 0.088494 0.000000
0.351892 0.082602 0.000000
0.480266 0.074608 0.000000
0.653822 0.063800 0.000000
0.888846 0.049165 0.000000
1.000000 0.029316 0.000000
1.000000 0.002429 0.000000
1.000000 0.000000 0.000000
1.000000 0.000000 0.000000
1.000000 0.000000 0.000000
1.000000 0.000000 0.000000
1.000000 0.000000 0.000000
1.000000 0.000000 0.000000
1.000000 0.000000 0.000000
1.000000 0.000000 0.000000
1.000000 0.000000 0.000000
1.000000 0.000000 0.000000
1.000000 0.000000 0.000000
1.000000 0.000000 0.000000
0.000000 0.136090 0.000000
0.000000 0.136090 0.000000
0.000000 0.136090 0.000000
0.000000 0.136090 0.000000
0.000313 0.136090 0.000000
0.007830 0.136090 0.000000
0.016628 0.136090 0.000000
0.028052 0.136090 0.000000
0.044073 0.136090 0.000000
0.066100 0.136090 0.000000
0.096040 0.136090 0.000000
0.136090 0.136090 0.000000
0.187514 0.132888 0.000000
0.257264 0.128545 0.000000
0.351892 0.122652 0.000000
0.480266 0.114658 0.000000
0.653822 0.103851 0.000000
0.888846 0.089215 0.000000
1.000000 0.069367 0.000000
1.000000 0.042479 0.000000
1.000000 0.006061 0.000000
1.000000 0.000000 0.000000
1.000000 0.000000 0.000000
1.000000 0.000000 0.000000
1.000000 0.000000 0.000000
1.000000 0.000000 0.000000
1.000000 0.000000 0.000000
1.000000 0.000000 0.000000
1.000000 0.000000 0.000000
1.000000 0.000000 0.000000
1.000000 0.000000 0.000000
1.000000 0.000000 0.000000
0.000000 0.187514 0.000000
0.000000 0.187514 0.000000
0.000000 0.187514 0.000000
0.000000 0.187514 0.000000
0.000000 0.187514 0.000000
0.004628 0.187514 0.000000
0.013426 0.187514 0.000000
0.024850 0.187514 0.000000
0.040870 0.187514 0.000000
0.062898 0.187514 0.000000
0.092837 0.187514 0.000000
0.132888 0.187514 0.000000
0.187514 0.187514 0.000000
0.257264 0.183171 0.000000
0.351892 0.177278 0.000000
0.480266 0.169284 0.000000
0.653822 0.158477 0.000000
0.888846 0.143842 0.000000
1.000000 0.123993 0.000000
1.000000 0.097105 0.000000
1.000000 0.060688 0.000000
1.000000 0.011361 0.000000
1.000000 0.000000 0.000000
1.000000 0.000000 0.000000
1.000000 0.000000 0.000000
1.000000 0.000000 0.000000
1.000000 0.000000 0.000000
1.000000 0.000000 0.000000
1.000000 0.000000 0.000000
1.000000 0.000000 0.000000
1.000000 0.000000 0.000000
1.000000 0.000000 0.000000
0.000000 0.257264 0.000000
0.000000 0.257264 0.000000
0.000000 0.257264 0.000000
0.000000 0.257264 0.000000
0.000000 0.257264 0.000000
0.000285 0.257264 0.000000
0.009083 0.257264 0.000000
0.020507 0.257264 0.000000
0.036527 0.257264 0.000000
0.058555 0.257264 0.000000
0.088494 0.257264 0.000000
0.128545 0.257264 0.000000
0.183171 0.257264 0.000000
0.257264 0.257264 0.000000
0.351892 0.251371 0.000000
0.480266 0.243377 0.000000
0.653822 0.232570 0.000000
0.888846 0.217935 0.000000
1.000000 0.198086 0.000000
1.000000 0.171198 0.000000
1.000000 0.134781 0.000000
1.000000 0.085454 0.000000
1.000000 0.018685 0.000000
1.000000 0.000000 0.000000
1.000000 0.000000 0.000000
1.000000 0.000000 0.000000
1.000000 0.000000 0.000000
1.000000 0.000000 0.000000
1.000000 0.000000 0.000000
1.000000 0.000000 0.000000
1.000000 0.000000 0.000000
1.000000 0.000000 0.000000
0.000000 0.351892 0.000000
0.000000 0.351892 0.000000
0.000000 0.351892 0.000000
0.000000 0.351892 0.000000
0.000000 0.351892 0.000000
0.000000 0.351892 0.000000
0.003190 0.351892 0.000000
0.014614 0.351892 0.000000
0.030634 0.351892 0.000000
0.052662 0.351892 0.000000
0.082602 0.351892 0.000000
0.122652 0.351892 0.000000
0.177278 0.351892 0.000000
0.251371 0.351892 0.000000
0.351892 0.351892 0.000000
0.480266 0.343898 0.000000
0.653822 0.333090 0.000000
0.888846 0.318455 0.000000
1.000000 0.298607 0.000000
1.000000 0.271719 0.000000
1.000000 0.235301 0.000000
1.000000 0.185974 0.000000
1.000000 0.119205 0.000000
1.000000 0.028736 0.000000
1.000000 0.000000 0.000000
1.000000 0.000000 0.000000
1.000000 0.000000 0.000000
1.000000 0.000000 0.000000
1.000000 0.000000 0.000000
1.000000 0.000000 0.000000
1.000000 0.000000 0.000000
1.000000 0.000000 0.000000
0.000000 0.480266 0.000000
0.000000 0.480266 0.000000
0.000000 0.480266 0.000000
0.000000 0.480266 0.000000
0.000000 0.480266 0.000000
0.000000 0.480266 0.000000
0.000000 0.480266 0.000000
0.006620 0.480266 0.000000
0.022640 0.480266 0.000000
0.044668 0.480266 0.000000
0.074608 0.480266 0.000000
0.114658 0.480266 0.000000
0.169284 0.480266 0.000000
0.243377 0.480266 0.000000
0.343898 0.480266 0.000000
0.480266 0.480266 0.000000
0.653822 0.469459 0.000000
0.888846 0.454824 0.000000
1.000000 0.434975 0.000000
1.000000 0.408087 0.000000
1.000000 0.371670 0.000000
1.000000 0.322343 0.000000
1.000000 0.255574 0.000000
1.000000 0.165105 0.000000
1.000000 0.042543 0.000000
1.000000 0.000000 0.000000
1.000000 0.000000 0.000000
1.000000 0.000000 0.000000
1.000000 0.000000 0.000000
1.000000 0.000000 0.000000
1.000000 0.000000 0.000000
1.000000 0.000000 0.000000
0.000000 0.653822 0.000000
0.000000 0.653822 0.000000
0.000000 0.653822 0.000000
0.000000 0.653822 0.000000
0.000000 0.653822 0.000000
0.000000 0.653822 0.000000
0.000000 0.653822 0.000000
0.000000 0.653822 0.000000
0.011833 0.653822 0.000000
0.033861 0.653822 0.000000
0.063800 0.653822 0.000000
0.103850 0.653822 0.000000
0.158477 0.653822 0.000000
0.232570 0.653822 0.000000
0.333090 0.653822 0.000000
0.469459 0.653822 0.000000
0.653822 0.653822 0.000000
0.888846 0.639187 0.000000
1.000000 0.619338 0.000000
1.000000 0.592450 0.000000
1.000000 0.556033 0.000000
1.000000 0.506706 0.000000
1.000000 0.439937 0.000000
1.000000 0.349468 0.000000
1.000000 0.226906 0.000000
1.000000 0.060960 0.000000
1.000000 0.000000 0.000000
1.000000 0.000000 0.000000
1.000000 0.000000 0.000000
1.000000 0.000000 0.000000
1.000000 0.000000 0.000000
1.000000 0.000000 0.000000
0.000000 0.888846 0.000000
0.000000 0.888846 0.000000
0.000000 0.888846 0.000000
0.000000 0.888846 0.000000
0.000000 0.888846 0.000000
0.000000 0.888846 0.000000
0.000000 0.888846 0.000000
0.000000 0.888846 0.000000
0.000000 0.888846 0.000000
0.019225 0.888846 0.000000
0.049165 0.888846 0.000000
0.089215 0.888846 0.000000
0.143841 0.888846 0.000000
0.217935 0.888846 0.000000
0.318455 0.888846 0.000000
0.454824 0.888846 0.000000
0.639187 0.888846 0.000000
0.888846 0.888846 0.000000
1.000000 0.868997 0.000000
1.000000 0.842109 0.000000
1.000000 0.805692 0.000000
1.000000 0.756365 0.000000
1.000000 0.689596 0.000000
1.000000 0.599127 0.000000
1.000000 0.476565 0.000000
1.000000 0.310619 0.000000
1.000000 0.085932 0.000000
1.000000 0.000000 0.000000
1.000000 0.000000 0.000000
1.000000 0.000000 0.000000
1.000000 0.000000 0.000000
1.000000 0.000000 0.000000
0.000000 1.000000 0.000000
0.000000 1.000000 0.000000
0.000000 1.000000 0.000000
0.000000 1.000000 0.000000
0.000000 1.000000 0.000000
0.000000 1.000000 0.000000
0.000000 1.000000 0.000000
0.000000 1.000000 0.000000
0.000000 1.000000 0.000000
0.000000 1.000000 0.000000
0.029316 1.000000 0.000000
0.069367 1.000000 0.000000
0.123993 1.000000 0.000000
0.198086 1.000000 0.000000
0.298606 1.000000 0.000000
0.434975 1.000000 0.000000
0.619338 1.000000 0.000000
0.868997 1.000000 0.000000
1.000000 1.000000 0.000000
1.000000 1.000000 0.000000
1.000000 1.000000 0.000000
1.000000 1.000000 0.000000
1.000000 1.000000 0.000000
1.000000 0.937718 0.000000
1.000000 0.815156 0.000000
1.000000 0.649209 0.000000
1.000000 0.424522 0.000000
1.000000 0.120320 0.000000
1.000000 0.000000 0.000000
1.000000 0.000000 0.000000
1.000000 0.000000 0.000000
1.000000 0.000000 0.000000
0.000000 1.000000 0.000000
0.000000 1.000000 0.000000
0.000000 1.000000 0.000000
0.000000 1.000000 0.000000
0.000000 1.000000 0.000000
0.000000 1.000000 0.000000
0.000000 1.000000 0.000000
0.000000 1.000000 0.000000
0.000000 1.000000 0.000000
0.000000 1.000000 0.000000
0.002428 1.000000 0.000000
0.042479 1.000000 0.000000
0.097105 1.000000 0.000000
0.171198 1.000000 0.000000
0.271718 1.000000 0.000000
0.408087 1.000000 0.000000
0.592450 1.000000 0.000000
0.842110 1.000000 0.000000
1.000000 1.000000 0.000000
1.000000 1.000000 0.000000
1.000000 1.000000 0.000000
1.000000 1.000000 0.000000
1.000000 1.000000 0.000000
1.000000 1.000000 0.000000
1.000000 1.000000 0.000000
1.000000 1.000000 0.000000
1.000000 0.883199 0.000000
1.000000 0.578997 0.000000
1.000000 0.167111 0.000000
1.000000 0.000000 0.000000
1.000000 0.000000 0.000000
1.000000 0.000000 0.000000
0.000000 1.000000 0.000000
0.000000 1.000000 0.000000
0.000000 1.000000 0.000000
0.000000 1.000000 0.000000
0.000000 1.000000 0.000000
0.000000 1.000000 0.000000
0.000000 1.000000 0.000000
0.000000 1.000000 0.000000
0.000000 1.000000 0.000000
0.000000 1.000000 0.000000
0.000000 1.000000 0.000000
0.006061 1.000000 0.000000
0.060687 1.000000 0.000000
0.134780 1.000000 0.000000
0.235301 1.000000 0.000000
0.371670 1.000000 0.000000
0.556033 1.000000 0.000000
0.805691 1.000000 0.000000
1.000000 1.000000 0.000000
1.000000 1.000000 0.000000
1.000000 1.000000 0.000000
1.000000 1.000000 0.000000
1.000000 1.000000 0.000000
1.000000 1.000000 0.000000
1.000000 1.000000 0.000000
1.000000 1.000000 0.000000
1.000000 1.000000 0.000000
1.000000 1.000000 0.000000
1.000000 0.788352 0.000000
1.000000 0.230732 0.000000
1.000000 0.000000 0.000000
1.000000 0.000000 0.000000
0.000000 1.000000 0.000000
0.000000 1.000000 0.000000
0.000000 1.000000 0.000000
0.000000 1.000000 0.000000
0.000000 1.000000 0.000000
0.000000 1.000000 0.000000
0.000000 1.000000 0.000000
0.000000 1.000000 0.000000
0.000000 1.000000 0.000000
0.000000 1.000000 0.000000
0.000000 1.000000 0.000000
0.000000 1.000000 0.000000
0.011361 1.000000 0.000000
0.085454 1.000000 0.000000
0.185974 1.000000 0.000000
0.322343 1.000000 0.000000
0.506706 1.000000 0.000000
0.756365 1.000000 0.000000
1.000000 1.000000 0.000000
1.000000 1.000000 0.000000
1.000000 1.000000 0.000000
1.000000 1.000000 0.000000
1.000000 1.000000 0.000000
1.000000 1.000000 0.000000
1.000000 1.000000 0.000000
1.000000 1.000000 0.000000
1.000000 1.000000 0.000000
1.000000 1.000000 0.000000
1.000000 1.000000 0.000000
1.000000 1.000000 0.000000
1.000000 0.317368 0.000000
1.000000 0.000000 0.000000
0.000000 1.000000 0.000000
0.000000 1.000000 0.000000
0.000000 1.000000 0.000000
0.000000 1.000000 0.000000
0.000000 1.000000 0.000000
0.000000 1.000000 0.000000
0.000000 1.000000 0.000000
0.000000 1.000000 0.000000
0.000000 1.000000 0.000000
0.000000 1.000000 0.000000
0.000000 1.000000 0.000000
0.000000 1.000000 0.000000
0.000000 1.000000 0.000000
0.018685 1.000000 0.000000
0.119205 1.000000 0.000000
0.255574 1.000000 0.000000
0.439936 1.000000 0.000000
0.689596 1.000000 0.000000
1.000000 1.000000 0.000000
1.000000 1.000000 0.000000
1.000000 1.000000 0.000000
1.000000 1.000000 0.000000
1.000000 1.000000 0.000000
1.000000 1.000000 0.000000
1.000000 1.000000 0.000000
1.000000 1.000000 0.000000
1.000000 1.000000 0.000000
1.000000 1.000000 0.000000
1.000000 1.000000 0.000000
1.000000 1.000000 0.000000
1.000000 1.000000 0.000000
1.000000 0.434644 0.000000
0.000000 1.000000 0.000000
0.000000 1.000000 0.000000
0.000000 1.000000 0.000000
0.000000 1.000000 0.000000
0.000000 1.000000 0.000000
0.000000 1.000000 0.000000
0.000000 1.000000 0.000000
0.000000 1.000000 0.000000
0.000000 1.000000 0.000000
0.000000 1.000000 0.000000
0.000000 1.000000 0.000000
0.000000 1.000000 0.000000
0.000000 1.000000 0.000000
0.000000 1.000000 0.000000
0.028737 1.000000 0.000000
0.165105 1.000000 0.000000
0.349468 1.000000 0.000000
0.599127 1.000000 0.000000
0.937717 1.000000 0.000000
1.000000 1.000000 0.000000
1.000000 1.000000 0.000000
1.000000 1.000000 0.000000
1.000000 1.000000 0.000000
1.000000 1.000000 0.000000
1.000000 1.000000 0.000000
1.000000 1.000000 0.000000
1.000000 1.000000 0.000000
1.000000 1.000000 0.000000
1.000000 1.000000 0.000000
1.000000 1.000000 0.000000
1.000000 1.000000 0.000000
1.000000 1.000000 0.000000
0.000000 1.000000 0.000000
0.000000 1.000000 0.000000
0.000000 1.000000 0.000000
0.000000 1.000000 0.000000
0.000000 1.000000 0.000000
0.000000 1.000000 0.000000
0.000000 1.000000 0.000000
0.000000 1.000000 0.000000
0.000000 1.000000 0.000000
0.000000 1.000000 0.000000
0.000000 1.000000 0.000000
0.000000 1.000000 0.000000
0.000000 1.000000 0.000000
0.000000 1.000000 0.000000
0.000000 1.000000 0.000000
0.042543 1.000000 0.000000
0.226905 1.000000 0.000000
0.476564 1.000000 0.000000
0.815155 1.000000 0.000000
1.000000 1.000000 0.000000
1.000000 1.000000 0.000000
1.000000 1.000000 0.000000
1.000000 1.000000 0.000000
1.000000 1.000000 0.000000
1.000000 1.000000 0.000000
1.000000 1.000000 0.000000
1.000000 1.000000 0.000000
1.000000 1.000000 0.000000
1.000000 1.000000 0.000000
1.000000 1.000000 0.000000
1.000000 1.000000 0.000000
1.000000 1.000000 0.000000
0.000000 1.000000 0.000000
0.000000 1.000000 0.000000
0.000000 1.000000 0.000000
0.000000 1.000000 0.000000
0.000000 1.000000 0.000000
0.000000 1.000000 0.000000
0.000000 1.000000 0.000000
0.000000 1.000000 0.000000
0.000000 1.000000 0.000000
0.000000 1.000000 0.000000
0.000000 1.000000 0.000000
0.000000 1.000000 0.000000
0.000000 1.000000 0.000000
0.000000 1.000000 0.000000
0.000000 1.000000 0.000000
0.000000 1.000000 0.000000
0.060959 1.000000 0.000000
0.310617 1.000000 0.000000
0.649208 1.000000 0.000000
1.000000 1.000000 0.000000
1.000000 1.000000 0.000000
1.000000 1.000000 0.000000
1.000000 1.000000 0.000000
1.000000 1.000000 0.000000
1.000000 1.000000 0.000000
1.000000 1.000000 0.000000
1.000000 1.000000 0.000000
1.000000 1.000000 0.000000
1.000000 1.000000 0.000000
1.000000 1.000000 0.000000
1.000000 1.000000 0.000000
1.000000 1.000000 0.000000
0.000000 1.000000 0.000000
0.000000 1.000000 0.000000
0.000000 1.000000 0.000000
0.000000 1.000000 0.000000
0.000000 1.000000 0.000000
0.000000 1.000000 0.000000
0.000000 1.000000 0.000000
0.000000 1.000000 0.000000
0.000000 1.000000 0.000000
0.000000 1.000000 0.000000
0.000000 1.000000 0.000000
0.000000 1.000000 0.000000
0.000000 1.000000 0.000000
0.000000 1.000000 0.000000
0.000000 1.000000 0.000000
0.000000 1.000000 0.000000
0.000000 1.000000 0.000000
0.085931 1.000000 0.000000
0.424523 1.000000 0.000000
0.883199 1.000000 0.000000
1.000000 1.000000 0.000000
1.000000 1.000000 0.000000
1.000000 1.000000 0.000000
1.000000 1.000000 0.000000
1.000000 1.000000 0.000000
1.000000 1.000000 0.000000
1.000000 1.000000 0.000000
1.000000 1.000000 0.000000
1.000000 1.000000 0.000000
1.000000 1.000000 0.000000
1.000000 1.000000 0.000000
1.000000 1.000000 0.000000
0.000000 1.000000 0.000000
0.000000 1.000000 0.000000
0.000000 1.000000 0.000000
0.000000 1.000000 0.000000
0.000000 1.000000 0.000000
0.000000 1.000000 0.000000
0.000000 1.000000 0.000000
0.000000 1.000000 0.000000
0.000000 1.000000 0.000000
0.000000 1.000000 0.000000
0.000000 1.000000 0.000000
0.000000 1.000000 0.000000
0.000000 1.000000 0.000000
0.000000 1.000000 0.000000
0.000000 1.000000 0.000000
0.000000 1.000000 0.000000
0.000000 1.000000 0.000000
0.000000 1.000000 0.000000
