CLXDemo/Assets/CLX/Object02/Frame.CUBE
#Created by: Adobe Photoshop Export Color Lookup Plugin
TITLE "mylut.exr"
#LUT size
LUT_3D_SIZE 5
#data domain
#LUT data points
DOMAIN_MIN 0.000000 0.000000 0.000000
DOMAIN_MAX 0.903226 0.903226 0.903226
0.000000 0.000000 0.000000
0.034386 0.000000 0.000000
0.351892 0.000000 0.000000
1.000000 0.000000 0.000000
1.000000 0.000000 0.000000
0.000000 0.034386 0.000000
0.034386 0.034386 0.000000
0.351892 0.014614 0.000000
1.000000 0.000000 0.000000
1.000000 0.000000 0.000000
0.000000 0.351892 0.000000
0.014614 0.351892 0.000000
0.351892 0.351892 0.000000
1.000000 0.185974 0.000000
1.000000 0.000000 0.000000
0.000000 1.000000 0.000000
0.000000 1.000000 0.000000
0.185974 1.000000 0.000000
1.000000 1.000000 0.000000
1.000000 1.000000 0.000000
0.000000 1.000000 0.000000
0.000000 1.000000 0.000000
0.000000 1.000000 0.000000
1.000000 1.000000 0.000000
1.000000 1.000000 0.000000
0.000000 0.000000 0.034386
0.034386 0.000000 0.034386
0.351892 0.000000 0.014614
1.000000 0.000000 0.000000
1.000000 0.000000 0.000000
0.000000 0.034386 0.034386
0.031155 0.031155 0.031155
0.348660 0.011383 0.011383
1.000000 0.000000 0.000000
1.000000 0.000000 0.000000
0.000000 0.351892 0.014614
0.011383 0.348660 0.011383
0.348660 0.348660 0.011383
1.000000 0.182743 0.000000
1.000000 0.000000 0.000000
0.000000 1.000000 0.000000
0.000000 1.000000 0.000000
0.182743 1.000000 0.000000
1.000000 1.000000 0.000000
1.000000 1.000000 0.000000
0.000000 1.000000 0.000000
0.000000 1.000000 0.000000
0.000000 1.000000 0.000000
1.000000 1.000000 0.000000
1.000000 1.000000 0.000000
0.000000 0.000000 0.351892
0.014614 0.000000 0.351892
0.351892 0.000000 0.351892
1.000000 0.000000 0.185974
1.000000 0.000000 0.000000
0.000000 0.014614 0.351892
0.011383 0.011383 0.348660
0.348660 0.011383 0.348660
1.000000 0.000000 0.182743
1.000000 0.000000 0.000000
0.000000 0.351892 0.351892
0.011383 0.348661 0.348660
0.328889 0.328889 0.328889
1.000000 0.162972 0.162972
1.000000 0.000000 0.000000
0.000000 1.000000 0.185974
0.000000 1.000000 0.182744
0.162972 1.000000 0.162972
1.000000 1.000000 0.162972
1.000000 1.000000 0.000000
0.000000 1.000000 0.000000
0.000000 1.000000 0.000000
0.000000 1.000000 0.000000
1.000000 1.000000 0.000000
1.000000 1.000000 0.000000
0.000000 0.000000 1.000000
0.000000 0.000000 1.000000
0.185974 0.000000 1.000000
1.000000 0.000000 1.000000
1.000000 0.000000 1.000000
0.000000 0.000000 1.000000
0.000000 0.000000 1.000000
0.182743 0.000000 1.000000
1.000000 0.000000 1.000000
1.000000 0.000000 1.000000
0.000000 0.185974 1.000000
0.000000 0.182743 1.000000
0.162972 0.162972 1.000000
1.000000 0.162972 1.000000
1.000000 0.000000 1.000000
0.000000 1.000000 1.000000
0.000000 1.000000 1.000000
0.162972 1.000000 1.000000
1.000000 1.000000 1.000000
1.000000 1.000000 1.000000
0.000000 1.000000 1.000000
0.000000 1.000000 1.000000
0.000000 1.000000 1.000000
1.000000 1.000000 1.000000
1.000000 1.000000 1.000000
0.000000 0.000000 1.000000
0.000000 0.000000 1.000000
0.000000 0.000000 1.000000
1.000000 0.000000 1.000000
1.000000 0.000000 1.000000
0.000000 0.000000 1.000000
0.000000 0.000000 1.000000
0.000000 0.000000 1.000000
1.000000 0.000000 1.000000
1.000000 0.000000 1.000000
0.000000 0.000000 1.000000
0.000000 0.000000 1.000000
0.000000 0.000000 1.000000
1.000000 0.000000 1.000000
1.000000 0.000000 1.000000
0.000000 1.000000 1.000000
0.000000 1.000000 1.000000
0.000000 1.000000 1.000000
1.000000 1.000000 1.000000
1.000000 1.000000 1.000000
0.000000 1.000000 1.000000
0.000000 1.000000 1.000000
0.000000 1.000000 1.000000
1.000000 1.000000 1.000000
1.000000 1.000000 1.000000
