CLXDemo/Assets/CLX/Object02/Frame.CUBE
#Created by: Adobe Photoshop Export Color Lookup Plugin
TITLE "mylut.exr"
#LUT size
LUT_3D_SIZE 8
#data domain
#LUT data points
DOMAIN_MIN 0.000000 0.000000 0.000000
DOMAIN_MAX 0.903226 0.903226 0.903226
0.000000 0.000000 0.000000
0.008272 0.000000 0.000000
0.049467 0.000000 0.000000
0.187514 0.000000 0.000000
0.653822 0.000000 0.000000
1.000000 0.000000 0.000000
1.000000 0.000000 0.000000
1.000000 0.000000 0.000000
0.000000 0.008272 0.000000
0.008272 0.008272 0.000000
0.049467 0.005707 0.000000
0.187514 0.000000 0.000000
0.653822 0.000000 0.000000
1.000000 0.000000 0.000000
1.000000 0.000000 0.000000
1.000000 0.000000 0.000000
0.000000 0.049467 0.000000
0.005707 0.049467 0.000000
0.049467 0.049467 0.000000
0.187514 0.040870 0.000000
0.653822 0.011833 0.000000
1.000000 0.000000 0.000000
1.000000 0.000000 0.000000
1.000000 0.000000 0.000000
0.000000 0.187514 0.000000
0.000000 0.187514 0.000000
0.040870 0.187514 0.000000
0.187514 0.187514 0.000000
0.653822 0.158477 0.000000
1.000000 0.060688 0.000000
1.000000 0.000000 0.000000
1.000000 0.000000 0.000000
0.000000 0.653822 0.000000
0.000000 0.653822 0.000000
0.011833 0.653822 0.000000
0.158477 0.653822 0.000000
0.653822 0.653822 0.000000
1.000000 0.556033 0.000000
1.000000 0.226906 0.000000
1.000000 0.000000 0.000000
0.000000 1.000000 0.000000
0.000000 1.000000 0.000000
0.000000 1.000000 0.000000
0.060687 1.000000 0.000000
0.556033 1.000000 0.000000
1.000000 1.000000 0.000000
1.000000 1.000000 0.000000
1.000000 0.788352 0.000000
0.000000 1.000000 0.000000
0.000000 1.000000 0.000000
0.000000 1.000000 0.000000
0.000000 1.000000 0.000000
0.226905 1.000000 0.000000
1.000000 1.000000 0.000000
1.000000 1.000000 0.000000
1.000000 1.000000 0.000000
0.000000 1.000000 0.000000
0.000000 1.000000 0.000000
0.000000 1.000000 0.000000
0.000000 1.000000 0.000000
0.000000 1.000000 0.000000
0.788350 1.000000 0.000000
1.000000 1.000000 0.000000
1.000000 1.000000 0.000000
0.000000 0.000000 0.008272
0.008272 0.000000 0.008272
0.049467 0.000000 0.005707
0.187514 0.000000 0.000000
0.653822 0.000000 0.000000
1.000000 0.000000 0.000000
1.000000 0.000000 0.000000
1.000000 0.000000 0.000000
0.000000 0.008272 0.008272
0.006667 0.006667 0.006667
0.047862 0.004102 0.004102
0.185909 0.000000 0.000000
0.652217 0.000000 0.000000
1.000000 0.000000 0.000000
1.000000 0.000000 0.000000
1.000000 0.000000 0.000000
0.000000 0.049467 0.005707
0.004102 0.047862 0.004102
0.047862 0.047862 0.004102
0.185909 0.039265 0.000000
0.652217 0.010228 0.000000
1.000000 0.000000 0.000000
1.000000 0.000000 0.000000
1.000000 0.000000 0.000000
0.000000 0.187514 0.000000
0.000000 0.185909 0.000000
0.039265 0.185909 0.000000
0.185909 0.185909 0.000000
0.652217 0.156872 0.000000
1.000000 0.059082 0.000000
1.000000 0.000000 0.000000
1.000000 0.000000 0.000000
0.000000 0.653822 0.000000
0.000000 0.652217 0.000000
0.010228 0.652217 0.000000
0.156872 0.652217 0.000000
0.652217 0.652217 0.000000
1.000000 0.554428 0.000000
1.000000 0.225301 0.000000
1.000000 0.000000 0.000000
0.000000 1.000000 0.000000
0.000000 1.000000 0.000000
0.000000 1.000000 0.000000
0.059082 1.000000 0.000000
0.554427 1.000000 0.000000
1.000000 1.000000 0.000000
1.000000 1.000000 0.000000
1.000000 0.786747 0.000000
0.000000 1.000000 0.000000
0.000000 1.000000 0.000000
0.000000 1.000000 0.000000
0.000000 1.000000 0.000000
0.225302 1.000000 0.000000
1.000000 1.000000 0.000000
1.000000 1.000000 0.000000
1.000000 1.000000 0.000000
0.000000 1.000000 0.000000
0.000000 1.000000 0.000000
0.000000 1.000000 0.000000
0.000000 1.000000 0.000000
0.000000 1.000000 0.000000
0.786743 1.000000 0.000000
1.000000 1.000000 0.000000
1.000000 1.000000 0.000000
0.000000 0.000000 0.049467
0.005707 0.000000 0.049467
0.049467 0.000000 0.049467
0.187514 0.000000 0.040870
0.653822 0.000000 0.011833
1.000000 0.000000 0.000000
1.000000 0.000000 0.000000
1.000000 0.000000 0.000000
0.000000 0.005707 0.049467
0.004102 0.004102 0.047862
0.047862 0.004102 0.047862
0.185909 0.000000 0.039265
0.652217 0.000000 0.010228
1.000000 0.000000 0.000000
1.000000 0.000000 0.000000
1.000000 0.000000 0.000000
0.000000 0.049467 0.049467
0.004102 0.047862 0.047862
0.045297 0.045297 0.045297
0.183344 0.036700 0.036700
0.649652 0.007663 0.007663
1.000000 0.000000 0.000000
1.000000 0.000000 0.000000
1.000000 0.000000 0.000000
0.000000 0.187514 0.040870
0.000000 0.185909 0.039265
0.036700 0.183344 0.036700
0.183344 0.183344 0.036700
0.649652 0.154306 0.007663
1.000000 0.056517 0.000000
1.000000 0.000000 0.000000
1.000000 0.000000 0.000000
0.000000 0.653822 0.011833
0.000000 0.652217 0.010228
0.007663 0.649652 0.007663
0.154307 0.649652 0.007663
0.649652 0.649652 0.007663
1.000000 0.551863 0.000000
1.000000 0.222736 0.000000
1.000000 0.000000 0.000000
0.000000 1.000000 0.000000
0.000000 1.000000 0.000000
0.000000 1.000000 0.000000
0.056517 1.000000 0.000000
0.551863 1.000000 0.000000
1.000000 1.000000 0.000000
1.000000 1.000000 0.000000
1.000000 0.784182 0.000000
0.000000 1.000000 0.000000
0.000000 1.000000 0.000000
0.000000 1.000000 0.000000
0.000000 1.000000 0.000000
0.222736 1.000000 0.000000
1.000000 1.000000 0.000000
1.000000 1.000000 0.000000
1.000000 1.000000 0.000000
0.000000 1.000000 0.000000
0.000000 1.000000 0.000000
0.000000 1.000000 0.000000
0.000000 1.000000 0.000000
0.000000 1.000000 0.000000
0.784181 1.000000 0.000000
1.000000 1.000000 0.000000
1.000000 1.000000 0.000000
0.000000 0.000000 0.187514
0.000000 0.000000 0.187514
0.040870 0.000000 0.187514
0.187514 0.000000 0.187514
0.653822 0.000000 0.158476
1.000000 0.000000 0.060687
1.000000 0.000000 0.000000
1.000000 0.000000 0.000000
0.000000 0.000000 0.187514
0.000000 0.000000 0.185909
0.039265 0.000000 0.185909
0.185909 0.000000 0.185909
0.652217 0.000000 0.156872
1.000000 0.000000 0.059083
1.000000 0.000000 0.000000
1.000000 0.000000 0.000000
0.000000 0.040870 0.187514
0.000000 0.039265 0.185909
0.036700 0.036700 0.183344
0.183344 0.036700 0.183344
0.649652 0.007663 0.154306
1.000000 0.000000 0.056518
1.000000 0.000000 0.000000
1.000000 0.000000 0.000000
0.000000 0.187514 0.187514
0.000000 0.185909 0.185909
0.036700 0.183344 0.183344
0.174748 0.174748 0.174748
0.641055 0.145710 0.145710
1.000000 0.047921 0.047921
1.000000 0.000000 0.000000
1.000000 0.000000 0.000000
0.000000 0.653822 0.158477
0.000000 0.652217 0.156872
0.007663 0.649652 0.154307
0.145710 0.641055 0.145710
0.641055 0.641055 0.145710
1.000000 0.543266 0.047921
1.000000 0.214139 0.000000
1.000000 0.000000 0.000000
0.000000 1.000000 0.060687
0.000000 1.000000 0.059083
0.000000 1.000000 0.056518
0.047921 1.000000 0.047921
0.543266 1.000000 0.047921
1.000000 1.000000 0.047921
1.000000 1.000000 0.000000
1.000000 0.775586 0.000000
0.000000 1.000000 0.000000
0.000000 1.000000 0.000000
0.000000 1.000000 0.000000
0.000000 1.000000 0.000000
0.214139 1.000000 0.000000
1.000000 1.000000 0.000000
1.000000 1.000000 0.000000
1.000000 1.000000 0.000000
0.000000 1.000000 0.000000
0.000000 1.000000 0.000000
0.000000 1.000000 0.000000
0.000000 1.000000 0.000000
0.000000 1.000000 0.000000
0.775584 1.000000 0.000000
1.000000 1.000000 0.000000
1.000000 1.000000 0.000000
0.000000 0.000000 0.653822
0.000000 0.000000 0.653822
0.011833 0.000000 0.653822
0.158477 0.000000 0.653822
0.653822 0.000000 0.653822
1.000000 0.000000 0.556033
1.000000 0.000000 0.226904
1.000000 0.000000 0.000000
0.000000 0.000000 0.653822
0.000000 0.000000 0.652217
0.010228 0.000000 0.652217
0.156872 0.000000 0.652217
0.652217 0.000000 0.652217
1.000000 0.000000 0.554428
1.000000 0.000000 0.225301
1.000000 0.000000 0.000000
0.000000 0.011833 0.653822
0.000000 0.010228 0.652217
0.007663 0.007663 0.649652
0.154307 0.007663 0.649652
0.649652 0.007663 0.649652
1.000000 0.000000 0.551863
1.000000 0.000000 0.222735
1.000000 0.000000 0.000000
0.000000 0.158476 0.653822
0.000000 0.156872 0.652217
0.007663 0.154306 0.649652
0.145710 0.145710 0.641055
0.641055 0.145710 0.641055
1.000000 0.047921 0.543266
1.000000 0.000000 0.214140
1.000000 0.000000 0.000000
0.000000 0.653822 0.653822
0.000000 0.652217 0.652217
0.007663 0.649652 0.649652
0.145710 0.641055 0.641055
0.612018 0.612018 0.612018
1.000000 0.514229 0.514229
1.000000 0.185102 0.185102
1.000000 0.000000 0.000000
0.000000 1.000000 0.556033
0.000000 1.000000 0.554428
0.000000 1.000000 0.551863
0.047921 1.000000 0.543266
0.514229 1.000000 0.514229
1.000000 1.000000 0.514229
1.000000 1.000000 0.185102
1.000000 0.746549 0.000000
0.000000 1.000000 0.226908
0.000000 1.000000 0.225302
0.000000 1.000000 0.222736
0.000000 1.000000 0.214139
0.185102 1.000000 0.185102
1.000000 1.000000 0.185102
1.000000 1.000000 0.185102
1.000000 1.000000 0.000000
0.000000 1.000000 0.000000
0.000000 1.000000 0.000000
0.000000 1.000000 0.000000
0.000000 1.000000 0.000000
0.000000 1.000000 0.000000
0.746549 1.000000 0.000000
1.000000 1.000000 0.000000
1.000000 1.000000 0.000000
0.000000 0.000000 1.000000
0.000000 0.000000 1.000000
0.000000 0.000000 1.000000
0.060687 0.000000 1.000000
0.556033 0.000000 1.000000
1.000000 0.000000 1.000000
1.000000 0.000000 1.000000
1.000000 0.000000 0.788355
0.000000 0.000000 1.000000
0.000000 0.000000 1.000000
0.000000 0.000000 1.000000
0.059082 0.000000 1.000000
0.554428 0.000000 1.000000
1.000000 0.000000 1.000000
1.000000 0.000000 1.000000
1.000000 0.000000 0.786748
0.000000 0.000000 1.000000
0.000000 0.000000 1.000000
0.000000 0.000000 1.000000
0.056518 0.000000 1.000000
0.551863 0.000000 1.000000
1.000000 0.000000 1.000000
1.000000 0.000000 1.000000
1.000000 0.000000 0.784181
0.000000 0.060687 1.000000
0.000000 0.059082 1.000000
0.000000 0.056518 1.000000
0.047921 0.047921 1.000000
0.543267 0.047921 1.000000
1.000000 0.047921 1.000000
1.000000 0.000000 1.000000
1.000000 0.000000 0.775589
0.000000 0.556033 1.000000
0.000000 0.554428 1.000000
0.000000 0.551863 1.000000
0.047921 0.543265 1.000000
0.514229 0.514229 1.000000
1.000000 0.514229 1.000000
1.000000 0.185102 1.000000
1.000000 0.000000 0.746540
0.000000 1.000000 1.000000
0.000000 1.000000 1.000000
0.000000 1.000000 1.000000
0.047921 1.000000 1.000000
0.514229 1.000000 1.000000
1.000000 1.000000 1.000000
1.000000 1.000000 1.000000
1.000000 0.648759 0.648759
0.000000 1.000000 1.000000
0.000000 1.000000 1.000000
0.000000 1.000000 1.000000
0.000000 1.000000 1.000000
0.185102 1.000000 1.000000
1.000000 1.000000 1.000000
1.000000 1.000000 1.000000
1.000000 1.000000 0.648759
0.000000 1.000000 0.788355
0.000000 1.000000 0.786753
0.000000 1.000000 0.784181
0.000000 1.000000 0.775589
0.000000 1.000000 0.746549
0.648759 1.000000 0.648759
1.000000 1.000000 0.648759
1.000000 1.000000 0.648759
0.000000 0.000000 1.000000
0.000000 0.000000 1.000000
0.000000 0.000000 1.000000
0.000000 0.000000 1.000000
0.226907 0.000000 1.000000
1.000000 0.000000 1.000000
1.000000 0.000000 1.000000
1.000000 0.000000 1.000000
0.000000 0.000000 1.000000
0.000000 0.000000 1.000000
0.000000 0.000000 1.000000
0.000000 0.000000 1.000000
0.225301 0.000000 1.000000
1.000000 0.000000 1.000000
1.000000 0.000000 1.000000
1.000000 0.000000 1.000000
0.000000 0.000000 1.000000
0.000000 0.000000 1.000000
0.000000 0.000000 1.000000
0.000000 0.000000 1.000000
0.222735 0.000000 1.000000
1.000000 0.000000 1.000000
1.000000 0.000000 1.000000
1.000000 0.000000 1.000000
0.000000 0.000000 1.000000
0.000000 0.000000 1.000000
0.000000 0.000000 1.000000
0.000000 0.000000 1.000000
0.214140 0.000000 1.000000
1.000000 0.000000 1.000000
1.000000 0.000000 1.000000
1.000000 0.000000 1.000000
0.000000 0.226907 1.000000
0.000000 0.225301 1.000000
0.000000 0.222735 1.000000
0.000000 0.214140 1.000000
0.185102 0.185102 1.000000
1.000000 0.185102 1.000000
1.000000 0.185102 1.000000
1.000000 0.000000 1.000000
0.000000 1.000000 1.000000
0.000000 1.000000 1.000000
0.000000 1.000000 1.000000
0.000000 1.000000 1.000000
0.185102 1.000000 1.000000
1.000000 1.000000 1.000000
1.000000 1.000000 1.000000
1.000000 0.648759 1.000000
0.000000 1.000000 1.000000
0.000000 1.000000 1.000000
0.000000 1.000000 1.000000
0.000000 1.000000 1.000000
0.185102 1.000000 1.000000
1.000000 1.000000 1.000000
1.000000 1.000000 1.000000
1.000000 1.000000 1.000000
0.000000 1.000000 1.000000
0.000000 1.000000 1.000000
0.000000 1.000000 1.000000
0.000000 1.000000 1.000000
0.000000 1.000000 1.000000
0.648759 1.000000 1.000000
1.000000 1.000000 1.000000
1.000000 1.000000 1.000000
0.000000 0.000000 1.000000
0.000000 0.000000 1.000000
0.000000 0.000000 1.000000
0.000000 0.000000 1.000000
0.000000 0.000000 1.000000
0.788355 0.000000 1.000000
1.000000 0.000000 1.000000
1.000000 0.000000 1.000000
0.000000 0.000000 1.000000
0.000000 0.000000 1.000000
0.000000 0.000000 1.000000
0.000000 0.000000 1.000000
0.000000 0.000000 1.000000
0.786748 0.000000 1.000000
1.000000 0.000000 1.000000
1.000000 0.000000 1.000000
0.000000 0.000000 1.000000
0.000000 0.000000 1.000000
0.000000 0.000000 1.000000
0.000000 0.000000 1.000000
0.000000 0.000000 1.000000
0.784181 0.000000 1.000000
1.000000 0.000000 1.000000
1.000000 0.000000 1.000000
0.000000 0.000000 1.000000
0.000000 0.000000 1.000000
0.000000 0.000000 1.000000
0.000000 0.000000 1.000000
0.000000 0.000000 1.000000
0.775589 0.000000 1.000000
1.000000 0.000000 1.000000
1.000000 0.000000 1.000000
0.000000 0.000000 1.000000
0.000000 0.000000 1.000000
0.000000 0.000000 1.000000
0.000000 0.000000 1.000000
0.000000 0.000000 1.000000
0.746558 0.000000 1.000000
1.000000 0.000000 1.000000
1.000000 0.000000 1.000000
0.000000 0.788355 1.000000
0.000000 0.786748 1.000000
0.000000 0.784181 1.000000
0.000000 0.775589 1.000000
0.000000 0.746540 1.000000
0.648759 0.648759 1.000000
1.000000 0.648759 1.000000
1.000000 0.648759 1.000000
0.000000 1.000000 1.000000
0.000000 1.000000 1.000000
0.000000 1.000000 1.000000
0.000000 1.000000 1.000000
0.000000 1.000000 1.000000
0.648759 1.000000 1.000000
1.000000 1.000000 1.000000
1.000000 1.000000 1.000000
0.000000 1.000000 1.000000
0.000000 1.000000 1.000000
0.000000 1.000000 1.000000
0.000000 1.000000 1.000000
0.000000 1.000000 1.000000
0.648759 1.000000 1.000000
1.000000 1.000000 1.000000
1.000000 1.000000 1.000000
